X:1010
T:Hope told a flattering tale
A:Wyresdale, Lancashire
B:E and J Winder, 1835-41
L:1/8
M:6/8
O:England
Z:Richard Robinson 
%%TUNEURL: http://www.leeds.ac.uk/music/Info/RRTuneBk/gettune/00001110.html
%%ID:00001110
K:C
g/f/ | \
e2e d2d | c3-c2 e/f/ | g2e a2f | edz z2d | e2e | (g3 a2)f/d/ |
c2c e2d | c3-c2 e/d/ | ^c2A a2g | g3-g2 (f//e//d//c//) |
B2G g2f | e3 e2g | ^f2f c'2f | g3-g2 g | |
(gf).f (fe).e | edz z2c | e2e fef | g3 Ha2f//e//f//d// | c2c g2B | c3-c2 ::
